dist/img/star.svg

<svg width="20" height="20" viewBox="0 0 20 20" fill="none" xmlns="http://www.w3.org/2000/svg">
<g clip-path="url(#clip0)">
<path d="M19.5151 7.77362C19.3902 7.38604 19.0468 7.11198 18.6402 7.07444L13.1183 6.57272L10.9349 1.46181C10.7741 1.08765 10.4074 0.845947 9.99996 0.845947C9.59239 0.845947 9.22571 1.08842 9.06488 1.46349L6.8816 6.57364L1.35884 7.07521C0.953095 7.11198 0.609763 7.38604 0.484638 7.77362C0.358902 8.1612 0.475482 8.58526 0.782192 8.85367L4.9565 12.5137L3.72554 17.9347C3.63566 18.3331 3.79054 18.7447 4.12151 18.9847C4.29806 19.1147 4.50727 19.1797 4.71647 19.1797C4.89729 19.1797 5.07735 19.1315 5.23818 19.0348L9.99996 16.1872L14.7608 19.034C15.1092 19.243 15.5484 19.2247 15.8784 18.9856C16.2092 18.7456 16.3643 18.3339 16.2742 17.9355L15.0434 12.5147L19.2177 8.85443C19.5243 8.58617 19.641 8.16197 19.5151 7.77362V7.77362Z" fill="#A99260"/>
<path d="M4.47753 19.5953C4.25749 19.5953 4.03989 19.5271 3.85419 19.3928C3.50826 19.1428 3.34667 18.7119 3.44082 18.2953L4.72747 12.6285L0.363954 8.80167C0.0432058 8.52091 -0.0793255 8.07839 0.0523614 7.67249C0.184048 7.26752 0.542334 6.98003 0.96654 6.94082L6.74092 6.41666L9.02263 1.07488C9.19094 0.68241 9.57425 0.428955 10.0001 0.428955C10.426 0.428955 10.8093 0.68241 10.9776 1.07396L13.2593 6.41666L19.0328 6.94082C19.4579 6.97912 19.8162 7.26675 19.9479 7.67173C20.0796 8.07747 19.9578 8.52091 19.6362 8.80091L15.2736 12.6268L16.5602 18.2937C16.6545 18.7104 16.4928 19.1412 16.147 19.3911C15.8027 19.6403 15.3436 19.6612 14.9794 19.4428L10.0001 16.4677L5.02167 19.4445C4.85336 19.5454 4.66583 19.5953 4.47753 19.5953V19.5953ZM10.0001 15.1861C10.1893 15.1861 10.3767 15.2369 10.5452 15.3369L15.2437 18.147L14.0293 12.7976C13.9427 12.416 14.0719 12.0192 14.3661 11.7618L18.4862 8.14751L13.0352 7.6525C12.6444 7.61756 12.306 7.37174 12.1526 7.00918L10.0001 1.96815L7.84584 7.00994C7.6934 7.37082 7.35511 7.61665 6.9634 7.65174L1.51328 8.14675L5.63326 11.7609C5.92837 12.0185 6.0567 12.416 5.97003 12.7976L4.75586 18.147L9.45431 15.3369C9.62339 15.2369 9.81092 15.1861 10.0001 15.1861ZM6.69591 6.52088V6.52165V6.52088ZM13.3036 6.51829V6.5192C13.3036 6.5192 13.3036 6.5192 13.3036 6.51829Z" fill="#1C1C1C"/>
</g>
<defs>
<clipPath id="clip0">
<rect width="20" height="20" fill="white"/>
</clipPath>
</defs>
</svg>

<svg width="20" height="20" fill="none" xmlns="http://www.w3.org/2000/svg"><g clip-path="url(#clip0)"><path d="M19.515 7.774a1.015 1.015 0 00-.875-.7l-5.522-.501-2.183-5.111a1.016 1.016 0 00-1.87.001l-2.183 5.11-5.523.502a1.017 1.017 0 00-.577 1.778l4.175 3.66-1.231 5.422a1.018 1.018 0 001.512 1.1L10 16.187l4.76 2.847a1.018 1.018 0 001.513-1.098l-1.23-5.421 4.175-3.66c.306-.269.423-.693.297-1.081z" fill="#A99260"/><path d="M4.478 19.595a1.063 1.063 0 01-1.037-1.3l1.286-5.667L.364 8.803A1.062 1.062 0 01.967 6.94l5.774-.524 2.282-5.342a1.063 1.063 0 011.955-.001l2.281 5.343 5.774.524a1.062 1.062 0 01.603 1.86l-4.362 3.826 1.286 5.667a1.062 1.062 0 01-1.58 1.149L10 16.468l-4.978 2.977c-.169.1-.356.15-.544.15zM10 15.186c.19 0 .377.05.545.15l4.699 2.811-1.215-5.35a1.062 1.062 0 01.337-1.035l4.12-3.614-5.45-.495a1.057 1.057 0 01-.883-.644L10 1.97 7.846 7.01c-.153.362-.49.608-.883.643l-5.45.495 4.12 3.614c.295.258.424.655.337 1.037l-1.214 5.349 4.698-2.81c.17-.1.357-.15.546-.15zM6.696 6.521zm6.608-.003v.001z" fill="#1C1C1C"/></g><defs><clipPath id="clip0"><path fill="#fff" d="M0 0h20v20H0z"/></clipPath></defs></svg>
